X:1
T:Like a Mighty Sea
T:Like a Mighty Sea
T:Henry Lake Gilmour
T:Henry Jeffreys Zelley, 1901
T:Public Domain Courtesy of the Cyber Hymnal™
T:Public Domain Courtesy of the Cyber Hymnal™
C:Henry Lake Gilmour
Z:Public Domain
Z:Courtesy of the Cyber Hymnal™
%%score ( 1 2 ) ( 3 4 )
L:1/8
Q:1/4=95
M:4/4
K:F
V:1 treble 
V:2 treble 
V:3 bass 
V:4 bass 
V:1
 C | [CF]>[CF] [CF]>[CG] [FA]2 [CF]>[CF] | [DG]>[DF] [DF]>[B,D] C3 C | %3
w: 1.~My|soul to- day is thirst- ing for|liv- ing streams di- vine, To|
w: 2.~I|see the clouds a- ris- ing, the|mer- cy clouds of love, That|
w: 3.~The|show’rs of grace are fall- ing, the|tide is roll- ing in, The|
w: 4.~It’s|com- ing, yes, it’s com- ing, it’s|com- ing down this hour, A|
 [FA]>[FA] [FA]>[FB] [Fc]2 [FA]>[CG] | [CF]>[DF] [CE]>[DF] [EG]3 C | %5
w: sweep from high- est Hea- ven to|this poor heart of mine; I|
w: come to bring re- fresh- ing down|from the throne a- bove, The|
w: flood- tide of sal- va- tion, with|power to cleanse from sin; It’s|
w: tor- rent of sal- va- tion in|sav- ing, cleans- ing power: I|
 [CF]>[CF] [CF]>[FG] [FA]2 [CF]>[CF] | [EG]>[EG] [_EA]>[EA] [DB]3 [Fc] | %7
w: stand up- on the prom- ise, in|Je- sus’ name I plead; O|
w: ear- nest of the show- er, just|now to us is giv’n, And|
w: surg- ing through my be- ing and|takes my sin a- way, It|
w: hear the bil- lows surg- ing, I|see them mount and roll; O|
 [Fc]>[Fc] [Fc]>[Fd] [Fc]2 [DB]>[DG] | [CF]>[CF] [CE]>[CG] [CF]4 || %9
w: send the gra- cious cur- rent to|sa- tis- fy my need.|
w: now we wait, ex- pect- ing the|floods of grace from Heav’n.|
w: keeps me shout- ing glo- ry! through|all the hap- py day.|
w: glo- ry, hal- le- lu- jah! they’re|sweep- ing through my soul.|
"^Refrain" [CF]>[CF] [CF]>[FA] [Fc]4 | [CF]>[CF] [CF]>[FA] [Fc]4 | %11
w: ||
w: Like a might- y sea,|like a might- y sea,|
w: ||
w: ||
 [Fd]>[Fd] [FB]>[Fd] [Fc]2 [FA]2 | [EG]>[EG] [^FA]>[=F=B] [Ec]3 F | %13
w: ||
w: Comes the love of J- esus|sweep- ing o- ver me; The|
w: ||
w: ||
 [CF]>[CF] [CF]>[FA] [Fc]3 [CF] | [CF]>[CF] [CF]>[FA] [Fc]4 | [Fd]>[Fd] [FB][Fd] [Fc]2 [FA]2 | %16
w: |||
w: waves of glo- ry roll, the|shouts I can’t con- trol;|Comes the love of Je- sus|
w: |||
w: |||
 [Fc]>[FB] [EA]>[CG] [CF]3 |] %17
w: |
w: sweep- ing o’er my soul.|
w: |
w: |
V:2
 C | x8 | x4 C3 C | x8 | x7 C | x8 | x8 | x8 | x8 || x8 | x8 | x8 | x7 F | x8 | x8 | x8 | x7 |] %17
V:3
 [F,A,] | [F,A,]>[F,A,] [F,A,]>[F,B,] [F,C]2 [F,A,]>[F,A,] | %2
 [B,,B,]>[B,,B,] [B,,B,]>[B,,F,] [F,A,]3 [F,A,] | [F,C]>[F,C] [F,C]>[F,G,] [F,A,]2 [F,C]>[F,B,] | %4
 [F,A,]>[D,A,] G,>[G,=B,] [C,_B,]3 [E,B,] | [F,A,]>[F,A,] [F,A,]>[F,B,] [F,C]2 [F,A,]>[F,A,] | %6
 [C,C]>[C,C] [F,C]>F, [B,,B,]3 [F,A,] | [F,A,]>[F,A,] [F,A,]>[F,B,] [F,A,]2 [B,,B,]>[B,,B,] | %8
 [C,A,]>[C,A,] [C,G,]>[C,B,] [F,,A,]4 || [F,A,]>[F,A,] [F,A,]>[F,C] [F,A,]4 | %10
 [F,A,]>[F,A,] [F,A,]>[F,C] [F,A,]4 | [B,,B,]>[B,,B,] [D,B,]>[B,,B,] [F,A,]2 [F,C]2 | %12
 [G,C]>[G,C] [D,C]>G, (G,2 B,)[F,A,] | [F,A,]>[F,A,] [F,A,]>[F,C] [F,A,]3 [F,A,] | %14
 [F,A,]>[F,A,] [F,A,]>[F,C] [F,A,]4 | [B,,B,]>[B,,B,] [D,B,][B,,A,] [F,A,]2 [F,C]2 | %16
 [C,A,]>[C,D] [C,C]>[C,B,] [F,,F,A,]3 |] %17
V:4
 x | x8 | x8 | x8 | x2 G,3/2 x9/2 | x8 | x7/2 F,/ x4 | x8 | x8 || x8 | x8 | x8 | x4 C,3 x | x8 | %14
 x8 | x8 | x7 |] %17

